X:164
T: Das hungernde Kind
N: Q0115
O: Mitteleuropa, Deutschland / Frankreich, Lothringen, Kr. Forbach,
R: Ballade, Hunger, Tod
M: 4/4
L: 1/8
K: G
 | BBB2ddd2 | c2A2A4 |
c2c2B2A2 | G2E2D4 |
D2G2G2E2 | F2G2A4 |
c2c2BBG2 | AAF2G4 |
D2G2G2G2 | F2A2A4 |
B2B2d2d2 | c2F2G4

@@@ Tune index: 1457
